icon-themes/elementary_svg/cmd/32/controlproperties.svg

<svg height="32" width="32" xmlns="http://www.w3.org/2000/svg" xmlns:xlink="http://www.w3.org/1999/xlink"><linearGradient id="a" gradientUnits="userSpaceOnUse" x1="16.116789" x2="16.116789" xlink:href="#b" y1="21.119221" y2="10.997566"/><linearGradient id="b"><stop offset="0" stop-color="#fff"/><stop offset="1" stop-color="#fff" stop-opacity="0"/></linearGradient><linearGradient id="c" gradientUnits="userSpaceOnUse" x1="15.321168" x2="15.321168" xlink:href="#b" y1="3" y2="29.045145"/><linearGradient id="d" gradientTransform="matrix(.20430229 0 0 .20430239 2.924647 3.12895)" gradientUnits="userSpaceOnUse" x1="86.132919" x2="84.63858" y1="105.105" y2="20.895"><stop offset="0" stop-color="#fff"/><stop offset="1" stop-color="#959595"/></linearGradient><linearGradient id="e" gradientUnits="userSpaceOnUse" x1="17.036148" x2="17.036148" y1="2" y2="30.012184"><stop offset="0" stop-color="#f6f6f6"/><stop offset="1" stop-color="#d2d2d2"/></linearGradient><linearGradient id="f" gradientUnits="userSpaceOnUse" x1="10.922546" x2="10.922546" y1="2" y2="30.044857"><stop offset="0" stop-color="#aaa"/><stop offset="1" stop-color="#8c8c8c"/></linearGradient><radialGradient id="g" cx="6.702713" cy="73.615715" gradientTransform="matrix(2.2134617 0 0 .4842001 1.163803 -7.144736)" gradientUnits="userSpaceOnUse" r="7.228416"><stop offset="0"/><stop offset="1" stop-opacity="0"/></radialGradient><path d="m31.99982 28.5c0 1.932997-7.163364 3.5-15.99982 3.5-8.8364572 0-15.99982025-1.567003-15.99982025-3.5 0-1.932996 7.16336305-3.5 15.99982025-3.5 8.836456 0 15.99982 1.567004 15.99982 3.5z" fill="url(#g)" opacity=".2"/><path d="m13.875001 2.5c-.748739 0-1.375.595012-1.375 1.34375v1.7499996c-.473402.158876-.932751.343406-1.375.5625l-1.2187506-1.21875c-.529439-.529438-1.3768121-.529438-1.9062501 0l-3.0625 3.03125c-.529439.529438-.5294361 1.376813 0 1.90625l1.21875 1.2187504c-.224327.449932-.400632.923932-.5625 1.40625h-1.71875c-.748739 0-1.375002.595012-1.375 1.34375v4.3125c-.000001.748738.626264 1.343752 1.375 1.34375h1.71875c.161868.482318.338173.956318.5625 1.40625l-1.21875 1.21875c-.529439.529438-.52944 1.376812 0 1.90625l3.0625 3.03125c.529437.529438 1.3768131.529436 1.9062501 0l1.2187506-1.21875c.442249.219094.901598.403624 1.375.5625v1.75c-.000001.748738.626266 1.343752 1.375 1.34375h4.28125c.748739 0 1.34375-.595014 1.34375-1.34375v-1.75c.482318-.161868.956318-.338173 1.40625-.5625l1.218749 1.21875c.529439.529438 1.376811.529438 1.90625 0l3.0625-3.03125c.529439-.529438.529434-1.376814 0-1.90625l-1.25-1.25c.219094-.442249.403624-.901598.5625-1.375h1.75c.748739 0 1.34375-.595014 1.34375-1.34375v-4.3125c.000001-.748738-.595016-1.34375-1.34375-1.34375h-1.75c-.158876-.473402-.343406-.932751-.5625-1.375l1.25-1.2500004c.529439-.529438.529438-1.376812 0-1.90625l-3.0625-3.03125c-.529437-.529438-1.376814-.529438-1.90625 0l-1.218749 1.21875c-.449932-.224327-.923932-.400632-1.40625-.5625v-1.7499996c.000001-.748738-.595016-1.34375-1.34375-1.34375zm2.125 10c1.932 0 3.5 1.568 3.5 3.5s-1.568 3.5-3.5 3.5c-1.932001 0-3.5-1.568-3.5-3.5-.000001-1.932 1.568-3.5 3.5-3.5z" display="block" fill="url(#e)" stroke="url(#f)" stroke-linejoin="round"/><path d="m16 8c-4.411273 0-8.0000001 3.588727-8.0000001 8 0 4.411274 3.5887271 8 8.0000001 8s8-3.588726 8-8c0-4.411273-3.588727-8-8-8zm0 5c1.656854 0 3 1.343146 3 3s-1.343146 3-3 3-3-1.343146-3-3 1.343146-3 3-3z" opacity=".05"/><g fill="none"><path d="m15.999999 7.4999998c-4.686902 0-8.499999 3.8130992-8.499999 8.4999992-.0000002 4.686901 3.813097 8.500001 8.499999 8.500001 4.686903 0 8.500001-3.8131 8.500001-8.500001 0-4.6869-3.813098-8.4999992-8.500001-8.4999992z" stroke="url(#d)"/><path d="m13.875 3.5c-.639758.1395957-.281426.9697545-.375 1.4468366.04636.5967705.0119 1.3871301-.6875 1.5844134-.765238.1606259-1.646003 1.0182132-2.375.3125-.5056039-.4262421-.8876726-1.0588672-1.4843755-1.3349605-.5407076.2751985-.9312289.8758937-1.4154761 1.2855789-.65407.6780039-1.3769104 1.3012472-1.9874402 2.0139211-.0380728.5386852.6156924.8085736.9067917 1.2112105.5007373.379751.9173046 1.057877.5037794 1.658859-.339832.659737-.3885068 1.81868-1.3670293 1.821641-.6582277.0529-1.36834-.113773-1.989806.09868-.2222261.620609-.049167 1.345745-.1039439 2.01001.017783.893676-.035837 1.794436.027261 2.683617.3771148.391003 1.0238323.133059 1.5243644.207694.6387783-.09371 1.4231566.122058 1.5377348.85939.1751984.712662.9292423 1.558244.2543895 2.23436-.4203558.500498-1.0498435.87899-1.3216908 1.467284.2852627.600214.9223984.985095 1.3573244 1.49305.644873.63134 1.2973181 1.296541 1.9347017 1.908072.5512981.04116.8274487-.620606 1.2366649-.919156.380101-.501806 1.060094-.917737 1.661198-.502471.649426.341936 1.787769.400533 1.788052 1.365721.05574.659036-.119745 1.379822.103948 1.995071.710824.211082 1.509181.0466 2.256608.09868.813909-.01488 1.632306.02982 2.443405-.02238.37768-.362795.119997-1.008529.196039-1.497998-.0551-.577962.02332-1.324829.6875-1.510874.777573-.148764 1.668777-1.021335 2.40625-.3125.505604.426242.887673 1.058866 1.484375 1.334961.540708-.275199.931229-.875894 1.415477-1.285579.654069-.678004 1.37691-1.301247 1.987439-2.013921.03807-.538686-.615692-.808574-.906791-1.211211-.506655-.389766-.962574-1.072006-.533721-1.692448.341936-.649426.400533-1.787769 1.365721-1.788052.664013-.04719 1.374293.101475 2.00543-.08832.191498-.733903.03991-1.547672.08832-2.314525-.01434-.799853.02907-1.604056-.02238-2.401113-.362794-.377684-1.008528-.12-1.497997-.196042-.642943.089849-1.445587-.10069-1.566443-.850505-.188353-.702416-.928196-1.541967-.25693-2.211995.435917-.4621925.929463-.876983 1.329618-1.3685903.025768-.5431202-.619513-.8080101-.915874-1.2091322-.783763-.7694808-1.576749-1.5721768-2.35283-2.3219333-.551298-.0411647-.827448.6206059-1.236664.9191558-.379751.5007372-1.057877.9173045-1.658859.5037794-.659737-.3398321-1.81868-.3885069-1.821641-1.3670294-.047192-.6640125.101477-1.3742927-.088322-2.0054283-.733901-.1915024-1.547671-.0399126-2.314523-.0883217-.740718 0-1.481437 0-2.222155 0z" display="block" opacity=".8" stroke="url(#c)" stroke-linejoin="round"/><path d="m20.671534 16.058393a4.554745 4.554745 0 1 1 -9.10949 0 4.554745 4.554745 0 1 1 9.10949 0z" opacity=".4" stroke="url(#a)" stroke-width="1.012166" transform="matrix(.98798073 0 0 .98798073 .076923 .134617)"/></g></svg>

<?xml version="1.0" encoding="UTF-8" standalone="no"?>
<svg
   xmlns:dc="http://purl.org/dc/elements/1.1/"
   xmlns:cc="http://creativecommons.org/ns#"
   xmlns:rdf="http://www.w3.org/1999/02/22-rdf-syntax-ns#"
   xmlns:svg="http://www.w3.org/2000/svg"
   xmlns="http://www.w3.org/2000/svg"
   xmlns:xlink="http://www.w3.org/1999/xlink"
   version="1.1"
   width="32"
   height="32"
   id="svg3753">
  <defs
     id="defs3755">
    <linearGradient
       x1="16.116789"
       y1="21.119221"
       x2="16.116789"
       y2="10.997566"
       id="linearGradient3698"
       xlink:href="#linearGradient3679"
       gradientUnits="userSpaceOnUse" />
    <linearGradient
       id="linearGradient3679">
      <stop
         id="stop3681"
         style="stop-color:#ffffff;stop-opacity:1"
         offset="0" />
      <stop
         id="stop3683"
         style="stop-color:#ffffff;stop-opacity:0"
         offset="1" />
    </linearGradient>
    <linearGradient
       x1="15.321168"
       y1="3"
       x2="15.321168"
       y2="29.045145"
       id="linearGradient3688"
       xlink:href="#linearGradient3679"
       gradientUnits="userSpaceOnUse" />
    <linearGradient
       x1="86.132919"
       y1="105.105"
       x2="84.63858"
       y2="20.895"
       id="linearGradient2836"
       xlink:href="#linearGradient5128"
       gradientUnits="userSpaceOnUse"
       gradientTransform="matrix(0.20430229,0,0,0.20430239,2.9246465,3.1289497)" />
    <linearGradient
       id="linearGradient5128">
      <stop
         id="stop5130"
         style="stop-color:#ffffff;stop-opacity:1"
         offset="0" />
      <stop
         id="stop5132"
         style="stop-color:#959595;stop-opacity:1"
         offset="1" />
    </linearGradient>
    <linearGradient
       x1="32.036148"
       y1="19"
       x2="32.036148"
       y2="47.012184"
       id="linearGradient2840"
       xlink:href="#linearGradient3309"
       gradientUnits="userSpaceOnUse"
       gradientTransform="translate(-15,-17)" />
    <linearGradient
       x1="63.9995"
       y1="3.1001"
       x2="63.9995"
       y2="122.8994"
       id="linearGradient3309"
       gradientUnits="userSpaceOnUse">
      <stop
         id="stop3311"
         style="stop-color:#f6f6f6;stop-opacity:1"
         offset="0" />
      <stop
         id="stop3313"
         style="stop-color:#d2d2d2;stop-opacity:1"
         offset="1" />
    </linearGradient>
    <linearGradient
       x1="25.922546"
       y1="19"
       x2="25.922546"
       y2="47.044857"
       id="linearGradient2842"
       xlink:href="#linearGradient3397"
       gradientUnits="userSpaceOnUse"
       gradientTransform="translate(-15,-17)" />
    <linearGradient
       id="linearGradient3397">
      <stop
         id="stop3399"
         style="stop-color:#aaaaaa;stop-opacity:1"
         offset="0" />
      <stop
         id="stop3401"
         style="stop-color:#8c8c8c;stop-opacity:1"
         offset="1" />
    </linearGradient>
    <linearGradient
       id="linearGradient10691">
      <stop
         id="stop10693"
         style="stop-color:#000000;stop-opacity:1"
         offset="0" />
      <stop
         id="stop10695"
         style="stop-color:#000000;stop-opacity:0"
         offset="1" />
    </linearGradient>
    <radialGradient
       cx="6.702713"
       cy="73.615715"
       r="7.228416"
       fx="6.702713"
       fy="73.615715"
       id="radialGradient3751"
       xlink:href="#linearGradient10691"
       gradientUnits="userSpaceOnUse"
       gradientTransform="matrix(2.2134617,0,0,0.4842001,1.1638028,-7.1447362)" />
  </defs>
  <metadata
     id="metadata3758">
    <rdf:RDF>
      <cc:Work
         rdf:about="">
        <dc:format>image/svg+xml</dc:format>
        <dc:type
           rdf:resource="http://purl.org/dc/dcmitype/StillImage" />
        <dc:title />
      </cc:Work>
    </rdf:RDF>
  </metadata>
  <g
     id="layer1">
    <path
       d="M 31.99982,28.5 C 31.99982,30.432997 24.836456,32 16,32 7.1635428,32 1.7975e-4,30.432997 1.7975e-4,28.5 1.7975e-4,26.567004 7.1635428,25 16,25 c 8.836456,0 15.99982,1.567004 15.99982,3.5 z"
       id="path10689"
       style="opacity:0.2;fill:url(#radialGradient3751);fill-opacity:1;fill-rule:nonzero;stroke:none;stroke-width:0.80000001;marker:none;visibility:visible;display:inline;overflow:visible" />
    <path
       d="m 13.875001,2.5 c -0.748739,0 -1.375,0.595012 -1.375,1.34375 l 0,1.7499996 c -0.473402,0.158876 -0.932751,0.343406 -1.375,0.5625 l -1.2187506,-1.21875 c -0.529439,-0.529438 -1.3768121,-0.529438 -1.9062501,0 l -3.0625,3.03125 c -0.529439,0.529438 -0.5294361,1.376813 0,1.90625 l 1.21875,1.2187504 c -0.224327,0.449932 -0.400632,0.923932 -0.5625,1.40625 l -1.71875,0 c -0.748739,0 -1.375002,0.595012 -1.375,1.34375 l 0,4.3125 c -1e-6,0.748738 0.626264,1.343752 1.375,1.34375 l 1.71875,0 c 0.161868,0.482318 0.338173,0.956318 0.5625,1.40625 l -1.21875,1.21875 c -0.529439,0.529438 -0.52944,1.376812 0,1.90625 l 3.0625,3.03125 c 0.529437,0.529438 1.3768131,0.529436 1.9062501,0 l 1.2187506,-1.21875 c 0.442249,0.219094 0.901598,0.403624 1.375,0.5625 l 0,1.75 c -10e-7,0.748738 0.626266,1.343752 1.375,1.34375 l 4.28125,0 c 0.748739,0 1.34375,-0.595014 1.34375,-1.34375 l 0,-1.75 c 0.482318,-0.161868 0.956318,-0.338173 1.40625,-0.5625 L 22.125,27.0625 c 0.529439,0.529438 1.376811,0.529438 1.90625,0 l 3.0625,-3.03125 c 0.529439,-0.529438 0.529434,-1.376814 0,-1.90625 l -1.25,-1.25 c 0.219094,-0.442249 0.403624,-0.901598 0.5625,-1.375 l 1.75,0 C 28.904989,19.5 29.5,18.904986 29.5,18.15625 l 0,-4.3125 C 29.500001,13.095012 28.904984,12.5 28.15625,12.5 l -1.75,0 c -0.158876,-0.473402 -0.343406,-0.932751 -0.5625,-1.375 l 1.25,-1.2500004 c 0.529439,-0.529438 0.529438,-1.376812 0,-1.90625 l -3.0625,-3.03125 c -0.529437,-0.529438 -1.376814,-0.529438 -1.90625,0 l -1.218749,1.21875 c -0.449932,-0.224327 -0.923932,-0.400632 -1.40625,-0.5625 l 0,-1.7499996 C 19.500002,3.095012 18.904985,2.5 18.156251,2.5 l -4.28125,0 z m 2.125,10 c 1.932,0 3.5,1.568 3.5,3.5 0,1.932 -1.568,3.5 -3.5,3.5 -1.932001,0 -3.5,-1.568 -3.5,-3.5 -10e-7,-1.932 1.568,-3.5 3.5,-3.5 z"
       id="rect2576"
       style="fill:url(#linearGradient2840);fill-opacity:1;fill-rule:nonzero;stroke:url(#linearGradient2842);stroke-width:1;stroke-linecap:butt;stroke-linejoin:round;stroke-miterlimit:4;stroke-opacity:1;stroke-dasharray:none;stroke-dashoffset:0;marker:none;visibility:visible;display:block;overflow:visible;enable-background:accumulate" />
    <path
       d="m 16,8 c -4.411273,0 -8.0000001,3.588727 -8.0000001,8 0,4.411274 3.5887271,8 8.0000001,8 4.411273,0 8,-3.588726 8,-8 0,-4.411273 -3.588727,-8 -8,-8 z m 0,5 c 1.656854,0 3,1.343146 3,3 0,1.656854 -1.343146,3 -3,3 -1.656854,0 -3,-1.343146 -3,-3 0,-1.656854 1.343146,-3 3,-3 z"
       id="path3315"
       style="opacity:0.05;fill:#000000;fill-opacity:1;stroke:none" />
    <path
       d="M 15.999999,7.4999998 C 11.313097,7.4999998 7.5,11.313099 7.5,15.999999 7.4999998,20.6869 11.313097,24.5 15.999999,24.5 20.686902,24.5 24.5,20.6869 24.5,15.999999 c 0,-4.6869 -3.813098,-8.4999992 -8.500001,-8.4999992 z"
       id="path28"
       style="fill:none;stroke:url(#linearGradient2836);stroke-width:1;stroke-miterlimit:4;stroke-dasharray:none" />
    <path
       d="M 13.875,3.5 C 13.235242,3.6395957 13.593574,4.4697545 13.5,4.9468366 13.54636,5.5436071 13.5119,6.3339667 12.8125,6.53125 12.047262,6.6918759 11.166497,7.5494632 10.4375,6.84375 9.9318961,6.4175079 9.5498274,5.7848828 8.9531245,5.5087895 8.4124169,5.783988 8.0218956,6.3846832 7.5376484,6.7943684 6.8835784,7.4723723 6.160738,8.0956156 5.5502082,8.8082895 5.5121354,9.3469747 6.1659006,9.6168631 6.4569999,10.0195 6.9577372,10.399251 7.3743045,11.077377 6.9607793,11.678359 6.6209473,12.338096 6.5722725,13.497039 5.59375,13.5 4.9355223,13.5529 4.22541,13.386227 3.603944,13.59868 c -0.2222261,0.620609 -0.049167,1.345745 -0.1039439,2.01001 0.017783,0.893676 -0.035837,1.794436 0.027261,2.683617 0.3771148,0.391003 1.0238323,0.133059 1.5243644,0.207694 0.6387783,-0.09371 1.4231566,0.122058 1.5377348,0.85939 0.1751984,0.712662 0.9292423,1.558244 0.2543895,2.23436 -0.4203558,0.500498 -1.0498435,0.87899 -1.3216908,1.467284 0.2852627,0.600214 0.9223984,0.985095 1.3573244,1.49305 0.644873,0.63134 1.2973181,1.296541 1.9347017,1.908072 0.5512981,0.04116 0.8274487,-0.620606 1.2366649,-0.919156 0.380101,-0.501806 1.060094,-0.917737 1.661198,-0.502471 0.649426,0.341936 1.787769,0.400533 1.788052,1.365721 0.05574,0.659036 -0.119745,1.379822 0.103948,1.995071 0.710824,0.211082 1.509181,0.0466 2.256608,0.09868 0.813909,-0.01488 1.632306,0.02982 2.443405,-0.02238 0.37768,-0.362795 0.119997,-1.008529 0.196039,-1.497998 -0.0551,-0.577962 0.02332,-1.324829 0.6875,-1.510874 0.777573,-0.148764 1.668777,-1.021335 2.40625,-0.3125 0.505604,0.426242 0.887673,1.058866 1.484375,1.334961 0.540708,-0.275199 0.931229,-0.875894 1.415477,-1.285579 0.654069,-0.678004 1.37691,-1.301247 1.987439,-2.013921 C 26.519111,22.653025 25.865349,22.383137 25.57425,21.9805 25.067595,21.590734 24.611676,20.908494 25.040529,20.288052 25.382465,19.638626 25.441062,18.500283 26.40625,18.5 27.070263,18.45281 27.780543,18.601475 28.41168,18.41168 28.603178,17.677777 28.45159,16.864008 28.5,16.097155 28.48566,15.297302 28.52907,14.493099 28.47762,13.696042 28.114826,13.318358 27.469092,13.576042 26.979623,13.5 26.33668,13.589849 25.534036,13.39931 25.41318,12.649495 25.224827,11.947079 24.484984,11.107528 25.15625,10.4375 25.592167,9.9753075 26.085713,9.560517 26.485868,9.0689097 26.511636,8.5257895 25.866355,8.2608996 25.569994,7.8597775 24.786231,7.0902967 23.993245,6.2876007 23.217164,5.5378442 22.665866,5.4966795 22.389716,6.1584501 21.9805,6.457 21.600749,6.9577372 20.922623,7.3743045 20.321641,6.9607794 19.661904,6.6209473 18.502961,6.5722725 18.5,5.59375 18.452808,4.9297375 18.601477,4.2194573 18.411678,3.5883217 17.677777,3.3968193 16.864007,3.5484091 16.097155,3.5 c -0.740718,0 -1.481437,0 -2.222155,0 z"
       id="path2901"
       style="opacity:0.8;fill:none;stroke:url(#linearGradient3688);stroke-width:1;stroke-linecap:butt;stroke-linejoin:round;stroke-miterlimit:4;stroke-opacity:1;stroke-dasharray:none;stroke-dashoffset:0;marker:none;visibility:visible;display:block;overflow:visible;enable-background:accumulate" />
    <path
       d="m 20.671534,16.058393 a 4.554745,4.554745 0 1 1 -9.10949,0 4.554745,4.554745 0 1 1 9.10949,0 z"
       transform="matrix(0.98798073,0,0,0.98798073,0.07692317,0.1346167)"
       id="path3690"
       style="opacity:0.4;color:#000000;fill:none;stroke:url(#linearGradient3698);stroke-width:1.01216555;stroke-linecap:butt;stroke-linejoin:miter;stroke-miterlimit:4;stroke-opacity:1;stroke-dasharray:none;stroke-dashoffset:0;marker:none;visibility:visible;display:inline;overflow:visible;enable-background:accumulate" />
  </g>
</svg>
